assets/symbols/mulberry/vertical_blinds.svg

<svg height="850.394" viewBox="0 0 850.394 850.394" width="850.394" xmlns="http://www.w3.org/2000/svg"><path d="m726.42 77.07v60.12h-585.84v-60.12z" fill="#ffffc2"/><path d="m699.1 142.65v554.15l-42.61 6.66-.11-561.48v-4.79h42.72z" fill="#ffeec8"/><path d="m656.5 748.26 1.28-1.71 19.75 17.24-17.25 23.04-19.74-17.24z" fill="#ffffc2"/><path d="m573.13 702.24v-565.05h83.25v4.79l.11 561.48-83.36 13.02zm-101.68 1.16-101.19 15.8v-582.01h202.87v565.05l-101.68 15.88zm-202.87.16v-566.37h101.68v567.79h-.08l-101.6 15.86zm0-566.37v566.37l-100.17 15.64v-582.01z" fill="#ffeec8"/><g fill="none"><g stroke="#231f20" stroke-width="21"><path d="m270.38 703.28-1.8.28-100.17 15.64v-580.92"/><path d="m370.18 704.98-101.6 15.86v-583.65m203.18 566.16-.31.05-101.19 15.8v-577.64"/><path d="m574.64 702-1.51.24-101.68 15.88v-574.38"/><path d="m699.1 142.65v554.15l-42.61 6.66-83.36 13.02v-574.92m-404.72-4.37h-27.83v-60.12h585.84v60.12h-457.84zm491.87 649.64-19.74-17.24 15.96-21.33 1.28-1.71 19.75 17.24z"/><path d="m656.38 141.98.11 561.48.01 44.8v3.21"/></g><path d="m0 0h850.394v850.394h-850.394z"/></g></svg>

<svg xmlns="http://www.w3.org/2000/svg" width="850.394" height="850.394" viewBox="0 0 850.394 850.394" overflow="visible"><path fill="#ffffc2" d="M726.42 77.07v60.12H140.58V77.07z"/><path fill="#ffeec8" d="M699.1 142.65V696.8l-42.61 6.66-.11-561.48v-4.79h42.72z"/><path fill="#ffffc2" d="M656.5 748.26l1.28-1.71 19.75 17.24-17.25 23.04-19.74-17.24z"/><path fill="#ffeec8" d="M573.13 702.24V137.19h83.25v4.79l.11 561.48-83.36 13.02zM471.45 703.4l-101.19 15.8V137.19h202.87v565.05l-101.68 15.88zM268.58 703.56V137.19h101.68v567.79h-.08l-101.6 15.86zM268.58 137.19v566.37L168.41 719.2V137.19z"/><g fill="none" stroke="#231f20" stroke-width="21"><path d="M270.38 703.28l-1.8.28-100.17 15.64V138.28"/><path d="M370.18 704.98l-101.6 15.86V137.19M471.76 703.35l-.31.05-101.19 15.8V141.56"/><path d="M574.64 702l-1.51.24-101.68 15.88V143.74"/><path d="M699.1 142.65V696.8l-42.61 6.66-83.36 13.02V141.56M168.41 137.19h-27.83V77.07h585.84v60.12H268.58zM660.28 786.83l-19.74-17.24 15.96-21.33 1.28-1.71 19.75 17.24z"/><path d="M656.38 141.98l.11 561.48.01 44.8v3.21"/></g><path fill="none" d="M0 0h850.394v850.394H0z"/></svg>
